X: 33847
T: Reconciliation, The
R: reel
M: 4/4
K: Gmajor
|:G2 BG dGeG|dGeG dBAB|G2BG dGeG|dBAB GEDE|
G2 BG dGeG|dGeG dBAB|GAGE DGBe|dBAB G2BA:|
|:GABd gfge|dedc BcAB|GABd gfgd|eaag fdef|
gfgd egdB|cBAB cdef|gfgd egdB|cAFA G2BA:|

